X:1
T: Miss Jean McColm
C:Muriel A Johnstone
R:Strathspey
%Q: 128
K:C
M:4/4
L:1/16
|:G2|((3cBA) ((3GAB) c4 G3E|FD3 f3e dg3 g3f|e3d c3B cA3 FD3|G3F E3D EC3 C3G|
((3cBA) ((3GAB) c4 G3E|FD3 f3e dg3 g3f|e3d c3B cA3 FD3|G3F E3D EC3 C2zB|
c4 A3c Be3 E4|c3B A3c Bg3 G4|c4 A3F Gc3 ((3CDE) |((3FED) ((3EDC) B,G3 ((3GAB)|
c3B A3c Be3 E4|A3G F3A Gc3 C4|F4 a3g f3e d3c|BG3 f3d ec3 c2:|
